X: 19942
T: Jiga Misteriosa Y Maravillosa
R: jig
M: 6/8
K: Aminor
AcA age|A2A age|ege dBA|GEG cBA|
AcA age|AAA age|ege dBA|GEG A3:|
efe cBA|BAG cBA|ABc eee|gag dcB|
ded cBA|BAG AGE|ABc edc|BAG A2A:|
AcA gdB|Gdc BAG|AcA gdB|Gdc B2B|
AcA gdB|Gdc BAG|AcA ded|BAG AAA:|

